source/img/logos/mishka-logo-mobile.svg

<svg width="86" height="35" viewBox="0 0 86 35" xmlns="http://www.w3.org/2000/svg">
<path d="M4.54732 26.3186C4.54732 22.8186 4.24733 19.4186 4.14733 15.9186C4.14733 15.6186 4.14733 15.2186 4.14733 14.9186C4.14733 15.0186 4.24732 15.1186 4.24732 15.3186C4.74732 16.7186 5.34732 18.0186 6.04732 19.2186C6.74732 20.4186 7.14732 21.8186 7.54732 23.1186C7.34732 23.3186 7.24733 23.5186 7.34733 23.7186C7.34733 23.9186 7.44732 23.9186 7.54732 24.0186C8.04732 24.5186 9.04733 24.2186 9.64733 24.0186C9.84733 23.9186 10.1473 23.8186 10.3473 23.6186C10.6473 23.4186 11.0473 23.0186 10.9473 22.6186C10.9473 22.5186 10.9473 22.4186 10.8473 22.4186C11.2473 21.3186 11.4473 20.2186 11.6473 19.1186C11.8473 17.9186 12.3473 16.8186 12.7473 15.6186C12.7473 16.1186 12.8473 16.6186 12.8473 17.2186C13.0473 19.3186 12.8473 21.5186 12.8473 23.6186C12.8473 24.3186 12.8473 25.0186 13.0473 25.7186C13.1473 26.0186 13.3473 27.2186 13.2473 27.3186C12.7473 27.8186 12.8473 28.4186 13.5473 28.5186C14.3473 28.7186 15.3473 28.4186 15.8473 27.9186C16.8473 27.0186 16.3473 25.5186 16.1473 24.3186C15.7473 22.3186 16.2473 20.1186 16.1473 18.1186C16.0473 15.8186 15.7473 13.6186 15.7473 11.3186C15.7473 9.51856 16.0473 7.61856 15.4473 5.81856C15.4473 5.61856 15.5473 5.41856 15.5473 5.21856C15.7473 4.31856 12.7473 4.81856 12.3473 5.61856C12.0473 5.81856 11.9473 6.11856 12.0473 6.41856C12.0473 6.51856 12.1473 6.51856 12.1473 6.61856C11.5473 9.31856 10.8473 11.9186 9.94733 14.5186C9.64733 15.5186 9.24733 16.5186 8.84733 17.5186C8.34733 16.6186 7.84733 15.6186 7.44733 14.7186C6.24733 11.8186 5.24733 8.91856 3.84733 6.11856C4.04733 4.81856 1.14732 4.91856 0.547324 6.11856C-0.152676 7.51856 -0.0526737 9.01856 0.147326 10.5186C0.447326 12.2186 0.447326 13.9186 0.447326 15.6186C0.447326 18.9186 0.747327 22.3186 0.847327 25.6186C0.547327 25.9186 0.447325 26.3186 0.747325 26.8186C0.847325 27.0186 1.04732 27.1186 1.24732 27.3186C2.44732 28.0186 4.54732 27.5186 4.54732 26.3186Z" fill="black"/>
<path d="M22.7473 7.91856C22.6473 7.31856 19.3473 8.01856 19.4473 8.81856C19.7473 10.6186 19.6473 12.4186 19.5473 14.2186C19.5473 15.9186 19.9473 17.5186 20.1473 19.2186C20.3473 20.9186 20.0473 22.7186 20.2473 24.4186C20.3473 25.2186 20.8473 26.7186 20.3473 27.4186C19.9473 27.8186 21.5473 27.7186 21.6473 27.7186C22.2473 27.6186 23.1473 27.4186 23.5473 26.8186C24.1473 26.1186 23.7473 24.8186 23.5473 24.0186C23.2473 22.3186 23.4473 20.5186 23.3473 18.7186C23.2473 17.0186 22.7473 15.4186 22.6473 13.8186C22.9473 11.8186 23.0473 9.91856 22.7473 7.91856Z" fill="black"/>
<path d="M25.9473 14.6186C26.8473 17.1186 30.5473 15.9186 32.5473 16.1186C35.7473 16.3186 34.8473 20.7186 34.8473 22.7186C34.8473 23.8186 35.8473 25.6186 35.0473 26.5186C34.5473 27.1186 33.3473 27.1186 32.6473 27.1186C31.9473 27.2186 30.7473 27.4186 30.3473 26.7186C29.5473 25.5186 30.4473 23.5186 30.2473 22.1186C30.1473 21.3186 26.8473 22.0186 26.9473 23.0186C27.2473 25.2186 25.7473 28.2186 28.9473 28.6186C31.0473 28.8186 33.3473 28.5186 35.2473 27.8186C36.2473 27.5186 37.1473 27.0186 37.9473 26.3186C38.8473 25.5186 38.5473 24.3186 38.3473 23.3186C37.7473 20.8186 38.9473 18.0186 37.3473 15.8186C35.6473 13.5186 32.3473 15.1186 30.1473 14.5186C28.9473 14.3186 28.9473 12.7186 28.9473 11.7186C28.9473 10.5186 28.8473 9.41856 28.7473 8.21856C28.6473 7.31856 28.7473 6.41856 29.3473 5.81856C29.4473 5.71856 30.0473 5.51856 30.0473 5.51856C30.3473 5.41856 30.6473 5.41856 30.9473 5.41856C32.2473 5.31856 34.8473 5.61856 34.3473 7.51856C34.1473 8.41856 37.3473 7.91856 37.6473 7.01856C38.6473 3.11856 31.5473 3.91856 29.4473 4.41856C27.5473 4.91856 25.5473 6.01856 25.4473 8.11856C25.3473 9.11856 25.6473 10.1186 25.7473 11.1186C25.7473 12.3186 25.4473 13.5186 25.9473 14.6186Z" fill="black"/>
<path d="M40.3473 16.5186C40.2473 18.3186 40.1473 20.1186 40.1473 21.9186C40.1473 22.8186 40.2473 23.7186 40.4473 24.7186C40.5473 25.5186 40.8473 26.7186 40.6473 27.5186C40.4473 28.1186 43.6473 27.7186 43.9473 26.9186C44.4473 25.4186 43.7473 23.5186 43.6473 22.0186C43.5473 20.5186 43.6473 19.1186 43.7473 17.6186C45.4473 17.5186 47.1473 17.4186 48.8473 17.6186C48.9473 18.8186 49.0473 19.9186 49.1473 21.1186C49.2473 22.1186 49.3473 23.0186 49.3473 24.0186C49.3473 24.9186 49.4473 26.1186 49.1473 26.9186C48.4473 28.6186 51.8473 28.5186 52.2473 27.2186C52.8473 25.6186 52.6473 23.7186 52.5473 22.0186C52.2473 19.8186 51.9473 17.8186 51.9473 15.7186C51.8473 12.5186 51.3473 9.41856 51.3473 6.21856C51.3473 4.51856 48.0473 5.11856 48.0473 6.51856C48.0473 9.51856 48.4473 12.5186 48.6473 15.6186C48.6473 15.7186 48.6473 15.7186 48.6473 15.8186C47.0473 15.8186 45.3473 15.9186 43.7473 16.0186C43.9473 12.1186 43.2473 8.21856 43.3473 4.31856C43.3473 3.81856 40.0473 4.21856 40.0473 5.21856C39.8473 9.01856 40.4473 12.7186 40.3473 16.5186Z" fill="black"/>
<path d="M54.4473 21.8186C54.1473 22.1186 54.2473 22.2186 54.4473 22.3186C54.4473 23.8186 54.4473 25.2186 54.2473 26.7186C53.8473 27.3186 54.6473 27.7186 55.1473 27.7186H55.2473C55.8473 27.7186 57.4473 27.4186 57.5473 26.6186C57.7473 24.8186 57.7473 23.1186 57.7473 21.3186C59.0473 19.9186 60.1473 18.2186 61.1473 16.6186C61.7473 17.8186 62.3473 19.1186 62.8473 20.5186C63.5473 22.8186 64.7473 24.9186 65.4473 27.3186C65.9473 28.8186 69.2473 27.9186 68.7473 26.4186C68.0473 24.1186 66.8473 21.9186 66.1473 19.6186C65.3473 17.3186 64.1473 15.2186 63.1473 13.0186C63.9473 11.4186 64.8473 9.71856 65.6473 8.01856C66.3473 6.51856 66.8473 4.81856 68.2473 3.71856C68.7473 3.31856 68.7473 2.91856 68.0473 2.91856C67.3473 2.81856 66.3473 3.11856 65.7473 3.51856C64.4473 4.51856 63.7473 5.71856 63.0473 7.11856C62.2473 8.81856 61.4473 10.5186 60.5473 12.2186C60.4473 12.3186 60.4473 12.4186 60.3473 12.6186C59.9473 12.9186 59.6473 13.2186 59.8473 13.7186C59.1473 15.0186 58.5473 16.3186 57.7473 17.6186C57.4473 12.9186 56.9473 8.31856 56.7473 3.61856C56.7473 2.51856 53.4473 3.21856 53.4473 4.51856C53.6473 10.2186 54.4473 16.0186 54.4473 21.8186Z" fill="black"/>
<path d="M85.9473 15.6186C85.7473 14.9186 84.7473 14.9186 84.0473 15.0186C84.0473 14.7186 84.0473 14.4186 84.0473 14.2186C83.9473 12.0186 83.9473 9.71856 83.7473 7.41856C83.5473 5.31856 82.4473 4.61856 80.4473 4.71856C78.4473 4.81856 76.0473 5.11856 74.1473 5.91856C71.9473 6.81856 70.7473 8.41856 70.3473 10.7186C69.8473 13.2186 70.5473 15.9186 70.6473 18.5186C70.7473 21.5186 70.7473 24.4186 70.7473 27.4186C70.7473 27.9186 74.0473 27.4186 74.0473 26.5186C74.0473 24.2186 74.0473 21.8186 74.0473 19.5186C74.0473 18.8186 74.0473 18.1186 73.9473 17.4186C75.1473 16.9186 77.0473 17.4186 78.2473 17.5186C79.1473 17.6186 80.0473 17.4186 80.9473 17.3186C80.9473 19.2186 81.0473 21.2186 81.1473 23.2186C81.1473 24.2186 81.5473 26.2186 80.8473 27.0186C80.4473 27.4186 82.0473 27.3186 82.1473 27.3186C82.8473 27.2186 83.6473 27.0186 84.0473 26.4186C84.8473 25.5186 84.4473 23.2186 84.3473 22.1186C84.2473 20.5186 84.2473 18.9186 84.2473 17.3186C85.0473 16.9186 86.1473 16.3186 85.9473 15.6186ZM79.3473 15.4186C77.4473 15.4186 75.5473 15.1186 73.6473 15.4186C73.5473 14.3186 73.4473 13.3186 73.3473 12.2186C73.2473 10.2186 73.4473 7.51856 75.2473 6.31856C75.7473 6.01856 76.6473 6.01856 77.2473 5.91856C78.0473 5.81856 78.8473 5.61856 79.6473 6.11856C80.6473 6.81856 80.4473 9.21856 80.4473 10.2186C80.4473 11.9186 80.6473 13.6186 80.7473 15.3186C80.2473 15.4186 79.7473 15.4186 79.3473 15.4186Z" fill="black"/>
<path d="M19.1473 4.11856C19.1473 4.31856 19.1473 4.51856 19.2473 4.61856V4.71856C19.2473 4.81856 19.2473 4.91856 19.2473 5.01856C19.3473 5.21856 19.4473 5.31856 19.6473 5.41856C19.9473 5.61856 20.3473 5.61856 20.7473 5.61856C21.1473 5.61856 21.6473 5.41856 21.9473 5.21856C22.0473 5.11856 22.0473 5.11856 22.1473 5.01856C22.5473 4.71856 22.9473 4.31856 22.7473 3.91856C22.3473 3.01856 22.3473 2.01856 22.4473 1.01856C22.4473 0.218559 21.6473 -0.0814409 20.9473 0.0185591C20.3473 0.118559 19.1473 0.518558 19.1473 1.31856C19.1473 2.11856 19.0473 3.01856 19.2473 3.81856C19.1473 3.91856 19.1473 4.01856 19.1473 4.11856Z" fill="black"/>
<path d="M80.6473 33.3186C79.0473 32.7186 77.3473 32.7186 75.7473 32.5186C74.1473 32.3186 72.5473 32.1186 70.8473 31.9186C69.2473 32.0186 67.5473 31.9186 65.8473 32.0186L60.9473 32.3186C54.4473 32.6186 47.9473 32.6186 41.4473 32.4186C34.9473 32.3186 28.4473 31.9186 21.8473 31.9186C18.5473 31.9186 15.2473 32.0186 11.9473 32.2186C10.3473 32.5186 8.74733 32.7186 7.04733 33.1186C5.44733 33.5186 3.94733 34.0186 2.24733 34.1186C3.84733 34.5186 5.54733 34.4186 7.24733 34.4186C8.84733 34.4186 10.4473 34.5186 12.1473 34.6186C15.3473 34.4186 18.6473 34.4186 21.8473 34.3186C28.3473 34.3186 34.8473 34.6186 41.4473 34.8186C47.9473 34.9186 54.5473 35.0186 61.1473 34.7186L66.0473 34.4186C67.6473 34.3186 69.2473 34.3186 70.8473 34.3186C72.4473 34.2186 74.1473 34.0186 75.7473 33.8186C77.4473 33.6186 78.9473 33.2186 80.6473 33.3186H80.7473V33.2186C80.7473 33.0186 80.7473 32.9186 80.7473 32.7186C80.7473 33.1186 80.7473 33.2186 80.6473 33.3186Z" fill="black"/>
</svg>

<svg width="86" height="35" fill="none" xmlns="http://www.w3.org/2000/svg"><path d="M4.547 26.319c0-3.5-.3-6.9-.4-10.4v-1c0 .1.1.2.1.4.5 1.4 1.1 2.7 1.8 3.9.7 1.2 1.1 2.6 1.5 3.9-.2.2-.3.4-.2.6 0 .2.1.2.2.3.5.5 1.5.2 2.1 0 .2-.1.5-.2.7-.4.3-.2.7-.6.6-1 0-.1 0-.2-.1-.2.4-1.1.6-2.2.8-3.3.2-1.2.7-2.3 1.1-3.5 0 .5.1 1 .1 1.6.2 2.1 0 4.3 0 6.4 0 .7 0 1.4.2 2.1.1.3.3 1.5.2 1.6-.5.5-.4 1.1.3 1.2.8.2 1.8-.1 2.3-.6 1-.9.5-2.4.3-3.6-.4-2 .1-4.2 0-6.2-.1-2.3-.4-4.5-.4-6.8 0-1.8.3-3.7-.3-5.5 0-.2.1-.4.1-.6.2-.9-2.8-.4-3.2.4-.3.2-.4.5-.3.8 0 .1.1.1.1.2-.6 2.7-1.3 5.3-2.2 7.9-.3 1-.7 2-1.1 3-.5-.9-1-1.9-1.4-2.8-1.2-2.9-2.2-5.8-3.6-8.6.2-1.3-2.7-1.2-3.3 0-.7 1.4-.6 2.9-.4 4.4.3 1.7.3 3.4.3 5.1 0 3.3.3 6.7.4 10-.3.3-.4.7-.1 1.2.1.2.3.3.5.5 1.2.7 3.3.2 3.3-1ZM22.747 7.919c-.1-.6-3.4.1-3.3.9.3 1.8.2 3.6.1 5.4 0 1.7.4 3.3.6 5 .2 1.7-.1 3.5.1 5.2.1.8.6 2.3.1 3-.4.4 1.2.3 1.3.3.6-.1 1.5-.3 1.9-.9.6-.7.2-2 0-2.8-.3-1.7-.1-3.5-.2-5.3-.1-1.7-.6-3.3-.7-4.9.3-2 .4-3.9.1-5.9ZM25.947 14.619c.9 2.5 4.6 1.3 6.6 1.5 3.2.2 2.3 4.6 2.3 6.6 0 1.1 1 2.9.2 3.8-.5.6-1.7.6-2.4.6-.7.1-1.9.3-2.3-.4-.8-1.2.1-3.2-.1-4.6-.1-.8-3.4-.1-3.3.9.3 2.2-1.2 5.2 2 5.6 2.1.2 4.4-.1 6.3-.8 1-.3 1.9-.8 2.7-1.5.9-.8.6-2 .4-3-.6-2.5.6-5.3-1-7.5-1.7-2.3-5-.7-7.2-1.3-1.2-.2-1.2-1.8-1.2-2.8 0-1.2-.1-2.3-.2-3.5-.1-.9 0-1.8.6-2.4.1-.1.7-.3.7-.3.3-.1.6-.1.9-.1 1.3-.1 3.9.2 3.4 2.1-.2.9 3 .4 3.3-.5 1-3.9-6.1-3.1-8.2-2.6-1.9.5-3.9 1.6-4 3.7-.1 1 .2 2 .3 3 0 1.2-.3 2.4.2 3.5ZM40.347 16.519c-.1 1.8-.2 3.6-.2 5.4 0 .9.1 1.8.3 2.8.1.8.4 2 .2 2.8-.2.6 3 .2 3.3-.6.5-1.5-.2-3.4-.3-4.9-.1-1.5 0-2.9.1-4.4 1.7-.1 3.4-.2 5.1 0 .1 1.2.2 2.3.3 3.5.1 1 .2 1.9.2 2.9 0 .9.1 2.1-.2 2.9-.7 1.7 2.7 1.6 3.1.3.6-1.6.4-3.5.3-5.2-.3-2.2-.6-4.2-.6-6.3-.1-3.2-.6-6.3-.6-9.5 0-1.7-3.3-1.1-3.3.3 0 3 .4 6 .6 9.1v.2c-1.6 0-3.3.1-4.9.2.2-3.9-.5-7.8-.4-11.7 0-.5-3.3-.1-3.3.9-.2 3.8.4 7.5.3 11.3ZM54.447 21.819c-.3.3-.2.4 0 .5 0 1.5 0 2.9-.2 4.4-.4.6.4 1 .9 1h.1c.6 0 2.2-.3 2.3-1.1.2-1.8.2-3.5.2-5.3 1.3-1.4 2.4-3.1 3.4-4.7.6 1.2 1.2 2.5 1.7 3.9.7 2.3 1.9 4.4 2.6 6.8.5 1.5 3.8.6 3.3-.9-.7-2.3-1.9-4.5-2.6-6.8-.8-2.3-2-4.4-3-6.6.8-1.6 1.7-3.3 2.5-5 .7-1.5 1.2-3.2 2.6-4.3.5-.4.5-.8-.2-.8-.7-.1-1.7.2-2.3.6-1.3 1-2 2.2-2.7 3.6-.8 1.7-1.6 3.4-2.5 5.1-.1.1-.1.2-.2.4-.4.3-.7.6-.5 1.1-.7 1.3-1.3 2.6-2.1 3.9-.3-4.7-.8-9.3-1-14 0-1.1-3.3-.4-3.3.9.2 5.7 1 11.5 1 17.3ZM85.947 15.619c-.2-.7-1.2-.7-1.9-.6v-.8c-.1-2.2-.1-4.5-.3-6.8-.2-2.1-1.3-2.8-3.3-2.7-2 .1-4.4.4-6.3 1.2-2.2.9-3.4 2.5-3.8 4.8-.5 2.5.2 5.2.3 7.8.1 3 .1 5.9.1 8.9 0 .5 3.3 0 3.3-.9v-7c0-.7 0-1.4-.1-2.1 1.2-.5 3.1 0 4.3.1.9.1 1.8-.1 2.7-.2 0 1.9.1 3.9.2 5.9 0 1 .4 3-.3 3.8-.4.4 1.2.3 1.3.3.7-.1 1.5-.3 1.9-.9.8-.9.4-3.2.3-4.3-.1-1.6-.1-3.2-.1-4.8.8-.4 1.9-1 1.7-1.7Zm-6.6-.2c-1.9 0-3.8-.3-5.7 0-.1-1.1-.2-2.1-.3-3.2-.1-2 .1-4.7 1.9-5.9.5-.3 1.4-.3 2-.4.8-.1 1.6-.3 2.4.2 1 .7.8 3.1.8 4.1 0 1.7.2 3.4.3 5.1-.5.1-1 .1-1.4.1ZM19.147 4.119c0 .2 0 .4.1.5v.4c.1.2.2.3.4.4.3.2.7.2 1.1.2.4 0 .9-.2 1.2-.4l.2-.2c.4-.3.8-.7.6-1.1-.4-.9-.4-1.9-.3-2.9 0-.8-.8-1.1-1.5-1-.6.1-1.8.5-1.8 1.3s-.1 1.7.1 2.5c-.1.1-.1.2-.1.3ZM80.647 33.319c-1.6-.6-3.3-.6-4.9-.8-1.6-.2-3.2-.4-4.9-.6-1.6.1-3.3 0-5 .1l-4.9.3c-6.5.3-13 .3-19.5.1-6.5-.1-13-.5-19.6-.5-3.3 0-6.6.1-9.9.3-1.6.3-3.2.5-4.9.9-1.6.4-3.1.9-4.8 1 1.6.4 3.3.3 5 .3 1.6 0 3.2.1 4.9.2 3.2-.2 6.5-.2 9.7-.3 6.5 0 13 .3 19.6.5 6.5.1 13.1.2 19.7-.1l4.9-.3c1.6-.1 3.2-.1 4.8-.1 1.6-.1 3.3-.3 4.9-.5 1.7-.2 3.2-.6 4.9-.5h.1v-.6c0 .4 0 .5-.1.6Z" fill="#000"/></svg>
